X:68
T:Raheen Reel, The
R:reel
S:Kevin Burke, who got it from the Murphy family.
D:Kevin Burke: Up Close.
Z:id:hn-reel-68
M:C|
K:Ador
AB|:cABG A2AB|cABG AGED|~G3F GABc|dBGB d2dB|
cABG A2AB|cABG AGED|e2ef gage|1 dBGB A2AB:|2 dBGB A2Bd||
|:eaab ~a3g|edef ged2|edef ~g3f|edef ged2|
eaab ~a3g|edef ged2|edef gage|1 dBGB A2Bd:|2 dBGB A2||
<end>
<start>
